!!!COA: des Prez, Josquin
!!!CDT: ~1450-1521/08/27
!!!COM: Moulu, Pierre
!!!OTL: Au bois au bois ma dame
!!!ONB: contrafact: <i>Petre, tu pastor ovium</i> (NJE 20.10)
!!!AGN: Motet
!!!SCT: Jos9916
!!!SCA: Jos9916
!!!voices: 4
**kern	**kern	**kern	**kern
*part4	*part3	*part2	*part1
*staff4	*staff3	*staff2	*staff1
*Ivox	*Ivox	*Ivox	*Ivox
*I"Bassus	*I"Tenor	*I"Altus	*I"Superius
*I'B	*I'T	*I'A	*I'S
*clefGv2	*clefGv2	*clefGv2	*clefG2
*k[b-]	*k[b-]	*k[b-]	*k[b-]
*d:	*d:	*d:	*d:
*M2/1	*M2/1	*M2/1	*M2/1
*met(C|)	*met(C|)	*met(C|)	*met(C|)
=	=	=	=
0r	0r	1r	1dd
.	.	1g	2g
.	.	.	2dd
=3	=3	=3	=3
0r	0r	2c	2ee-Xi
.	.	2g	2dd
.	.	2a	2cc
.	.	2g	2b-
=4	=4	=4	=4
0r	0r	2f	2r
.	.	2e	1cc
.	.	1f	.
.	.	.	2cc
=5	=5	=5	=5
0r	0r	2f	2a
.	.	2d	2b-
.	.	2e	2cc
.	.	2f	[2dd
=6	=6	=6	=6
0r	1r	2d	2dd]
.	.	1g	4cc
.	.	.	4b-
.	1d	.	1a
.	.	2f#Xi	.
=7	=7	=7	=7
0G	2G	1g	2r
.	2d	.	2dd
.	2e-Xi	1r	2g
.	2d	.	2dd
=8	=8	=8	=8
2C	2c	1g	2ee-Xi
2G	2B-	.	2dd
2A	1r	2c	2cc
2G	.	2g	2b-
=9	=9	=9	=9
2F	1c	2a	1cc
2E	.	2g	.
1F	1A	2.f	2cc
.	.	.	[2dd
.	.	4e	.
=10	=10	=10	=10
1.G	2.B-	2d	4dd]
.	.	.	4cc
.	.	1g	4b-
.	4c	.	4a
.	2d	.	2b-
2A	[2c	2e	[2a
=11	=11	=11	=11
2F	2c]	2f	4a]
.	.	.	4g
2G	2B-	2.d	1g
1D	1A	.	.
.	.	4c	.
.	.	2A	2f#Xi
=12	=12	=12	=12
1G	0G	1B-	0g
2r	.	1r	.
2G	.	.	.
=13	=13	=13	=13
2F	1r	1d	0r
2G	.	.	.
2A	2r	2c	.
2B-	2d	2d	.
=14	=14	=14	=14
2A	2c	2e	1r
2D	2d	2f	.
2C	2e	2e	2r
2D	2f	2d	2dd
=15	=15	=15	=15
2E	2e	2r	2cc
2F	2d	2A	2dd
2E	2r	2G	2ee
2D	2d	[2A	2ff
=16	=16	=16	=16
1r	2c	2A]	2ee
.	2A	4G	2dd
.	.	4F	.
2r	2c	2A	1r
2G	2B-	2B-	.
=17	=17	=17	=17
2F	1.A	2c	0r
2D	.	2d	.
1F	.	2A	.
.	4G	[2d	.
.	4F	.	.
=18	=18	=18	=18
1E	1G	2d]	1gg
.	.	2c#Xi	.
[1D	[1A	[1d	2ff
.	.	.	2dd
=19	=19	=19	=19
1D]	2A]	1d]	1ff
.	2B-	.	.
1r	1c	[1A	1ee
=20	=20	=20	=20
1D	1d	2A]	2dd
.	.	2B-	2ff
1C	1e	4c	4ee
.	.	4B-	4dd
.	.	4A	4cc
.	.	4G	4b-
=21	=21	=21	=21
1D	2f	2.F	2a
.	2d	.	2.ff
.	.	4G	.
4D	1f	1A	.
4E	.	.	4ee
4F	.	.	[2dd
4G	.	.	.
=22	=22	=22	=22
2A	1e	0r	2dd]
2A	.	.	2cc#Xi
[1D	[1d	.	[1dd
=23	=23	=23	=23
1D]	2d]	1r	1dd]
.	4c	.	.
.	4B-	.	.
1r	[1A	1c	1r
=24	=24	=24	=24
1F	1A]	2c	0r
.	.	2c	.
2F	1r	2c	.
2F	.	2c	.
=25	=25	=25	=25
2F	0r	2d	0r
2F	.	2d	.
2G	.	[1d	.
2G	.	.	.
=26	=26	=26	=26
1G	1B-	2d]	0r
.	.	1g	.
2G	2B-	.	.
2G	2B-	4f	.
.	.	4e	.
=27	=27	=27	=27
2G	2B-	1d	0r
2G	2B-	.	.
[1A	2c	[1c	.
.	2c	.	.
=28	=28	=28	=28
2A]	1c	2c]	0r
2G	.	2B-	.
2F	2c	2A	.
4E	2c	4G	.
4D	.	4F	.
=29	=29	=29	=29
1E	2c	1G	0r
.	2c	.	.
[1D	[1d	2A	.
.	.	2r	.
=30	=30	=30	=30
0D_	2d]	1f	0r
.	2c	.	.
.	2B-	2f	.
.	4A	2f	.
.	4G	.	.
=31	=31	=31	=31
1D]	1A	2f	0r
.	.	2f	.
[1G	[1G	2g	.
.	.	2g	.
=32	=32	=32	=32
0G_	1G]	1g	1b-
.	1r	2g	2b-
.	.	2g	2b-
=33	=33	=33	=33
1G]	0r	2g	2b-
.	.	2g	2b-
[1F	.	[1a	2cc
.	.	.	2cc
=34	=34	=34	=34
2F]	0r	2a]	1cc
2G	.	2g	.
1A	.	2f	2cc
.	.	4e	2cc
.	.	4d	.
=35	=35	=35	=35
1A	0r	1e	2cc
.	.	.	2cc
[1D	.	2.d	[1dd
.	.	4e	.
=36	=36	=36	=36
1D]	0r	4f	2dd]
.	.	4g	.
.	.	1a	2cc
1r	.	.	2b-
.	.	[2g	4a
.	.	.	4g
=37	=37	=37	=37
1r	1d	2g]	1a
.	.	2f#Xi	.
1G	2G	[1g	[1g
.	2d	.	.
=38	=38	=38	=38
2C	2e-Xi	1g]	1g]
2G	2d	.	.
2A	2c	1r	1r
2G	2B-	.	.
=39	=39	=39	=39
2F	1c	2r	0r
2E	.	1g	.
1C	[1c	.	.
.	.	2g	.
=40	=40	=40	=40
2C	2c]	2e	0r
2D	2A	2f	.
2G	2B-	2g	.
2F	2c	[2a	.
=41	=41	=41	=41
1D	2.d	4a]	0r
.	.	4g	.
.	.	4f	.
.	4c	4e	.
[1G	4B-	[1d	.
.	4A	.	.
.	2G	.	.
=42	=42	=42	=42
1G]	2r	0d]	1r
.	2d	.	.
1r	2G	.	1dd
.	2d	.	.
=43	=43	=43	=43
1G	2e-Xi	1r	2g
.	2d	.	2dd
2C	2c	1g	2ee-Xi
2G	2B-	.	2dd
=44	=44	=44	=44
2A	1r	2c	2cc
2G	.	2g	2b-
2F	1c	2a	1cc
2E	.	2g	.
=45	=45	=45	=45
1F	1A	2.f	2cc
.	.	.	2.dd
.	.	4e	.
[1G	2.B-	2d	.
.	.	.	4cc
.	.	2g	4b-
.	4c	.	4a
=46	=46	=46	=46
2G]	2d	2g	2b-
2D	2d	2f	2.a
2E	2B-	1e-X	.
.	.	.	4g
2C	2c	.	[2g
=47	=47	=47	=47
1D	1A	1d	2g]
.	.	.	2f#Xi
1G	[1G	1d	[1g
=48	=48	=48	=48
1r	1G]	2r	1g]
.	.	2g	.
2r	[1d	2f	1r
2G	.	2g	.
=49	=49	=49	=49
2F	1d]	2a	2r
2G	.	2b-	2dd
2A	1r	2a	2cc
2B-	.	2d	2dd
=50	=50	=50	=50
2A	2r	2c	2ee
2D	2d	2d	2ff
2r	2c	2e	2ee
2D	2d	2f	2dd
=51	=51	=51	=51
2C	2e	2e	2r
2D	2f	2d	2dd
2E	2e	2r	2cc
2F	2d	2a	[2dd
=52	=52	=52	=52
1G	1g	1b-	2dd]
.	.	.	4cc
.	.	.	4b-
2A	2f	2a	2cc
2B-	2d	[2f	2dd
=53	=53	=53	=53
2.F	1f	4f]	2a
.	.	4g	.
.	.	2.a	1dd
4G	.	.	.
1A	1e	.	.
.	.	4g	.
.	.	2e	2cc#Xi
=54	=54	=54	=54
2D	2d	2f	2dd
2r	2r	2r	2r
1G	1d	1g	1b-
=55	=55	=55	=55
2G	2d	2g	2b-
2G	2d	2g	2b-
2B-	2d	2f	2b-
2B-	2d	2f	2b-
=56	=56	=56	=56
2.F	2c	2f	2cc
.	2c	2f	2cc
8EL	.	.	.
8DJ	.	.	.
2C	1c	4e	2cc
.	.	4d	.
2C	.	4c	[2cc
.	.	4B-	.
=57	=57	=57	=57
2.F	2c	2A	2cc]
.	2c	2F	4b-
4F	.	.	4a
2E	2c	2G	2g
2E	2c	2G	2g
=58	=58	=58	=58
1D	2d	1A	2.f
.	1f	.	.
.	.	.	4g
1d	.	1r	2a
.	4e	.	2b-
.	4d	.	.
=59	=59	=59	=59
2c	2e	0r	2cc
4B-	2f	.	2dd
4A	.	.	.
2G	2g	.	2ee
2F	2a	.	[2ff
=60	=60	=60	=60
1B-	2f	0r	4ff]
.	.	.	4ee
.	2g	.	1dd
1A	1e	.	.
.	.	.	2cc#Xi
=61	=61	=61	=61
1r	0d	1a	0dd
1d	.	2d	.
.	.	2a	.
=62	=62	=62	=62
2G	0r	2b-	0r
2d	.	2a	.
2e-Xi	.	2g	.
2d	.	2f	.
=63	=63	=63	=63
2c	0r	2r	0r
2B-	.	1g	.
1c	.	.	.
.	.	2g	.
=64	=64	=64	=64
2c	0r	2e	0r
2A	.	2f	.
2B-	.	2g	.
2c	.	2a	.
=65	=65	=65	=65
1d	0r	2r	0r
.	.	2a	.
2r	.	2d	.
2d	.	2a	.
=66	=66	=66	=66
2G	0r	2b-	0r
2d	.	2a	.
2e-Xi	.	2g	.
2d	.	2f	.
=67	=67	=67	=67
2c	0r	1g	0r
2B-	.	.	.
1c	.	2g	.
.	.	[2a	.
=68	=68	=68	=68
1d	0r	4a]	0r
.	.	4g	.
.	.	4f	.
.	.	4e	.
2B-	.	2d	.
2c	.	[2g	.
=69	=69	=69	=69
1A	1r	2g]	0r
.	.	2f#Xi	.
[1G	1d	[1g	.
=70	=70	=70	=70
1G]	2G	0g]	1dd
.	2d	.	.
2r	2e-Xi	.	2g
2G	2d	.	2dd
=71	=71	=71	=71
2C	2c	2r	2ee-Xi
2G	2B-	2g	2dd
2A	1r	2c	2cc
2G	.	2g	2b-
=72	=72	=72	=72
2F	2r	2a	1cc
2E	1c	2g	.
1F	.	2.f	2cc
.	2A	.	[2dd
.	.	4e	.
=73	=73	=73	=73
1.G	2.B-	2d	4dd]
.	.	.	4cc
.	.	1g	4b-
.	4c	.	4a
.	2d	.	2b-
2A	[2c	2e	4cc
.	.	.	4b-
=74	=74	=74	=74
2F	4c]	2f	4a
.	4B-	.	4g
2G	4A	2d	1g
.	4G	.	.
1D	1A	1d	.
.	.	.	2f#Xi
=75	=75	=75	=75
0Gl	0Gl	0dl	0gl
==	==	==	==
*-	*-	*-	*-
!!!RDF**kern: l=long note in original notation
!!!system-decoration: s1,s2,s3,s4
!!!RDF**kern: i = editorial accidental
!!!ENC: Jesse Rodin 21 Oct 2020
!!!END: 2020/10/21/
!!!EED: Jesse Rodin
!!!EEV: 2020/10/23/
!!attribution-level@Jos: 4a (the rest [double question mark])
!!!ONB: Translated from MusicXML and edited on 2021/03/22 by Craig Sapp
!!muse2ps: u^@{ONB}^C^probably by Moulu, Pierre\nJosquin?^i2I150v85,85,85,150c140
